!!!COM:	de Orto, Marbrianus
!!!CDT:	~1460///-1529//
!!!OTL:	La mi la sol
!!!AGN:	Song; Chanson
!!!SCT:	Ort3006
!!!SCA:	Ort3006
!!!voices:	4
**kern	**kern	**kern	**kern
*staff4	*staff3	*staff2	*staff1
*Ivox	*Ivox	*Ivox	*Ivox
*I"Bassus	*I"Tenor	*I"Altus	*I"Superius
*I'B	*I'T	*I'A	*I'S
*clefF4	*clefGv2	*clefGv2	*clefG2
*k[]	*k[]	*k[]	*k[]
*M2/1	*M2/1	*M2/1	*M2/1
*met(C|)	*met(C|)	*met(C|)	*met(C|)
=1-	=1-	=1-	=1-
0r	0r	1.e	0r
.	.	2A/	.
=2	=2	=2	=2
0r	0r	1A	1r
.	.	1e	[1b
=3	=3	=3	=3
0r	0r	2d\	2b\]
.	.	1c	2e/
.	.	.	1e
.	.	4B\	.
.	.	4A/	.
=4	=4	=4	=4
0r	1r	1G	1b
.	[1A	2r	2a/
.	.	4F/	[2cc\
.	.	4G/	.
=5	=5	=5	=5
0r	2A/]	4A/	2cc\]
.	.	4B\	.
.	2E/	2c\	4b\
.	.	.	4a/
.	1E	2B\	1g
.	.	[2e\	.
=6	=6	=6	=6
1r	1A	4e\]	2r
.	.	4d\	.
.	.	2c\	1e
2r	2G/	2B\	.
[2D\	[2F/	2A/	[2a/
=7	=7	=7	=7
2D\]	2F/]	1r	2a/]
2AA/	4E/	.	4g/
.	4D/	.	4f/
1AA	1C	2r	1e
.	.	[2A/	.
=8	=8	=8	=8
2r	2D/	2A/]	2f/
2E\	2G/	1B	2e/
2D\	2F/	.	2f/
[2C/	2E/	[2c\	2g/
=9	=9	=9	=9
2C/]	1C	4c\]	2.e/
.	.	4d\	.
4BB/	.	2e\	.
4AA/	.	.	4c/
1GG	1G	1B	2.d/
.	.	.	4e/
=10	=10	=10	=10
1FF	0A	1c	4f/
.	.	.	4g/
.	.	.	4a/
.	.	.	4b\
1AA	.	2r	1cc
.	.	[2A/	.
=11	=11	=11	=11
0r	1E	2A/]	1b
.	.	2G/	.
.	1r	2A/	2a/
.	.	2E/	[2b\
=12	=12	=12	=12
0r	0r	2r	4b\]
.	.	.	4e/
.	.	2A/	2e/
.	.	2G/	1b
.	.	[2d\	.
=13	=13	=13	=13
0r	0r	2d\]	2.a/
.	.	2D/	.
.	.	.	4d/
.	.	2.G/	2d/
.	.	.	[2g/
.	.	8F/L	.
.	.	8E/J	.
=14	=14	=14	=14
0r	0r	2.c\	2g/]
.	.	.	4f/
.	.	8B/L	4e/
.	.	8A/J	.
.	.	2c\	1a
.	.	2d\	.
=15	=15	=15	=15
0r	0r	2B\	2g/
.	.	1e	2e/
.	.	.	1f
.	.	2d\	.
=16	=16	=16	=16
0AA	1A	0e	1e
.	2E/	.	1r
.	[2A/	.	.
=17	=17	=17	=17
1C	2A/]	0r	0r
.	2G/	.	.
1D	1F	.	.
=18	=18	=18	=18
0E	1E	0r	0r
.	[1c	.	.
=19	=19	=19	=19
1F	2c\]	0r	0r
.	4B\	.	.
.	4A/	.	.
1F	4d\	.	.
.	4c\	.	.
.	4B\	.	.
.	4A/	.	.
=20	=20	=20	=20
0E	1.G	1.e	0b
.	2E/	4d\	.
.	.	4c\	.
=21	=21	=21	=21
1r	1E	2B\	1g
.	.	1c	.
1AA	1F	.	1a
.	.	4B\	.
.	.	4A/	.
=22	=22	=22	=22
1GG	2r	1d	0b
.	[1.G	.	.
1EE	.	1e	.
=23	=23	=23	=23
0AA	2G/]	1c	1cc
.	4F#i/	.	.
.	4E/	.	.
.	1F#i	1A	1cc
=24	=24	=24	=24
0GG	0G	0d	0b
=25	=25	=25	=25
0r	0r	0r	0r
=26	=26	=26	=26
1G	1G	2.B\	1b
.	.	4c\	.
1G	1B	2d\	1b
.	.	[2e\	.
=27	=27	=27	=27
1F	2c\	2e\]	1a
.	2A/	2d\	.
1E	2.B\	1e	1g
.	4c\	.	.
=28	=28	=28	=28
1D	2d\	1f	1a
.	2D/	.	.
1C	2E/	1e	1cc
.	[2A/	.	.
=29	=29	=29	=29
0BB	2A/]	0d	0dd
.	4G#i/	.	.
.	4F#i/	.	.
.	1G#i	.	.
=30	=30	=30	=30
0AA	0A	1r	0cc
.	.	1e	.
=31	=31	=31	=31
0r	0r	2d\	1r
.	.	1c	.
.	.	.	1cc
.	.	4B\	.
.	.	4A/	.
=32	=32	=32	=32
0r	0r	2G/	1.b
.	.	4E/	.
.	.	4F/	.
.	.	4G/	.
.	.	4A/	.
.	.	4B\	4a/
.	.	4c\	4g/
=33	=33	=33	=33
0r	0r	2d\	2f/
.	.	2e\	2e/
.	.	2A/	2cc\
.	.	2e\	[2b\
=34	=34	=34	=34
0r	0r	2d\	2b\]
.	.	2e\	4a/
.	.	.	4g/
.	.	1c	1a
=35	=35	=35	=35
2E\	2r	1B	1b
2E\	2G/	.	.
2D\	2F/	1r	1r
2E\	[2G/	.	.
=36	=36	=36	=36
1C	4G/]	0r	0r
.	4E/	.	.
.	2c\	.	.
2BB/	2d\	.	.
2E\	[2c\	.	.
=37	=37	=37	=37
2D\	4c\]	0r	0r
.	4B\	.	.
2E\	1B	.	.
1C	.	.	.
.	2A/	.	.
=38	=38	=38	=38
1BB	2.B\	1r	1dd
.	4G/	.	.
2r	2A/	2r	2cc\
2BB/	[2G/	2d\	[2b\
=39	=39	=39	=39
1E	2G/]	2B\	2b\]
.	4F/	2c\	4a/
.	4E/	.	4g/
2D\	2F/	1d	2a/
2BB/	2D/	.	2b\
=40	=40	=40	=40
4C/	1E	2r	2g/
4BB/	.	.	.
4AA/	.	[1.c	1a
4GG/	.	.	.
2FF/	2F/	.	.
[2C/	[2E/	.	4g/
.	.	.	4f/
=41	=41	=41	=41
2C/]	4E/]	2c\]	2g/
.	4C/	.	.
1AA	4F/	1c	2a/
.	4E/	.	.
.	2A/	.	2e/
2D\	2F/	2A/	2f/
=42	=42	=42	=42
2C/	2G/	2c\	2e/
1BB	2D/	2d\	2f/
.	1G	1B	2d/
2GG/	.	.	[2g/
=43	=43	=43	=43
1C	1E	2r	2g/]
.	.	2c\	4f/
.	.	.	4e/
1r	1F	1A	2e/
.	.	.	2d/
=44	=44	=44	=44
2r	2.E/	1B	1e
1G	.	.	.
.	4F/	.	.
.	4G/	1r	1r
.	4A/	.	.
4F\	2B\	.	.
4E\	.	.	.
=45	=45	=45	=45
2F\	2A/	0r	0r
2E\	1c	.	.
4AA/	.	.	.
4BB/	.	.	.
4C/	4B\	.	.
4D\	4A/	.	.
=46	=46	=46	=46
4E\	2G/	0r	0r
4F\	.	.	.
2G\	2E/	.	.
2A\	2F/	.	.
2E\	[2G/	.	.
=47	=47	=47	=47
1G	2G/]	0r	0r
.	1E	.	.
1F	.	.	.
.	2D/	.	.
=48	=48	=48	=48
2E\	1E	2.B\	1r
1G	.	.	.
.	.	4c\	.
.	1B	2d\	2r
2GG/	.	2B\	[2d/
=49	=49	=49	=49
1AA	1A	1e	2d/]
.	.	.	2c/
2r	2D/	1d	2.d/
2GG/	2G/	.	.
.	.	.	4B/
=50	=50	=50	=50
2AA/	2E/	2r	2c/
1BB	2D/	2B\	2d/
.	2.G/	2d\	2B/
2GG/	.	[2B\	[2dd\
.	4F/	.	.
=51	=51	=51	=51
1BB	1D	2B\]	2dd\]
.	.	2d\	4cc\
.	.	.	4b\
2r	2F/	2A/	2cc\
2GG/	2G/	2B\	2b\
=52	=52	=52	=52
2AA/	2E/	2A/	2cc\
2BB/	2D/	2.G/	2dd\
1C	2.E/	.	2g/
.	.	4E/	.
.	.	2e\	[2cc\
.	4C/	.	.
=53	=53	=53	=53
1GG	1G	1d	4cc\]
.	.	.	4b\
.	.	.	4b\
.	.	.	4a/
1C	2r	1c	2cc\
.	2E/	.	2g/
=54	=54	=54	=54
2r	2F/	2A/	2a/
2GG/	2G/	2d\	2b\
2AA/	2E/	2c\	2cc\
2BB/	2D/	2B\	2dd\
=55	=55	=55	=55
1C	2E/	1e	2g/
.	1G	.	2cc\
1D	.	[1d	2b\
.	2F/	.	[2a/
=56	=56	=56	=56
1GG	1G	1d]	4a/]
.	.	.	4g/
.	.	.	1g
1D	1A	1d	.
.	.	.	2f#i/
=57	=57	=57	=57
2r	1G	1B	1g
1GG	.	.	.
.	2.E/	1r	1r
2AA/	.	.	.
.	4C/	.	.
=58	=58	=58	=58
2BB/	2D/	1r	0r
2C/	2E/	.	.
1D	1F	2.A/	.
.	.	4B\	.
=59	=59	=59	=59
1E	0E	2c\	1g
.	.	2.B\	.
1r	.	.	2.e/
.	.	4G/	.
.	.	[2B\	.
.	.	.	4g/
=60	=60	=60	=60
0r	0r	2B\]	2d/
.	.	1e	2e/
.	.	.	1f
.	.	2d\	.
=61	=61	=61	=61
0r	2r	1e	1e
.	2E/	.	.
.	2F/	2A/	2r
.	2G/	2d\	[2b\
=62	=62	=62	=62
0r	1E	1e	2b\]
.	.	.	4a/
.	.	.	4g/
.	2r	2f\	2cc\
.	2E/	[2g\	[2b\
=63	=63	=63	=63
0r	1A	2g\]	2b\]
.	.	4f\	4a/
.	.	4e\	4g/
.	1G	2e\	2cc\
.	.	2d\	4b\
.	.	.	4a/
=64	=64	=64	=64
1r	1E	2e\	1g
.	.	2B\	.
2r	2F/	1d	1r
2BB/	2G/	.	.
=65	=65	=65	=65
2C/	2E/	1r	0r
2D\	2.B\	.	.
1BB	.	1D	.
.	4c\	.	.
.	2d\	.	.
=66	=66	=66	=66
2r	2c\	2E/	0r
2BB/	2.d\	2D/	.
1D	.	1F	.
.	4c\	.	.
.	2B\	.	.
=67	=67	=67	=67
1C	2E/	2G/	0r
.	1A	1E	.
1BB	.	.	.
.	2G#i/	2D/	.
=68	=68	=68	=68
1AA	1A	2E/	1cc
.	.	2A/	.
1E	2G/	2B\	2b\
.	2E/	2c\	2g/
=69	=69	=69	=69
1D	1F	2d\	1a
.	.	2A/	.
2r	1G	2.B\	2d/
2E\	.	.	2g/
.	.	4c\	.
=70	=70	=70	=70
2D\	1A	2d\	2f/
2C/	.	2e\	1e
1E	1G	1B	.
.	.	.	[2g/
=71	=71	=71	=71
1C	2E/	1.c	2g/]
.	2G/	.	4f/
.	.	.	4e/
2r	2A/	.	2f/
[2E\	2E/	2B\	2g/
=72	=72	=72	=72
2E\]	2r	2c\	2e/
2D\	2F/	2d\	1a
2C/	2E/	2A/	.
2BB/	[2G/	[2B\	2d/
=73	=73	=73	=73
1E	4G/]	2B\]	2.g/
.	4A/	.	.
.	4B\	2.G/	.
.	4c\	.	4a/
1BB	2.d\	.	4b\
.	.	4A/	4cc\
.	.	4B\	[2dd\
.	4c\	4c\	.
=74	=74	=74	=74
2r	4B\	2d\	4dd\]
.	4A/	.	4cc\
2.E\	4G/	2r	4b\
.	4F/	.	4a/
.	1E	2B\	4g/
4D\	.	.	4f/
4C/	.	[2c\	[2e/
4BB/	.	.	.
=75	=75	=75	=75
1AA	1c	4c\]	2e/]
.	.	4d\	.
.	.	1e	2.a/
1E	1B	.	.
.	.	.	4g#i/
.	.	2e\	4g#i/
.	.	.	4f#i/
=76	=76	=76	=76
1AA	2A/	1c	1a
.	1E	.	.
2.E\	.	1B	2g/
.	[2G/	.	2e/
4D\	.	.	.
=77	=77	=77	=77
4C/	2G/]	1c	1e
4BB/	.	.	.
2AA/	2A/	.	.
1GG	2D/	1d	1b
.	[2G/	.	.
=78	=78	=78	=78
0E	2G/]	1B	0b
.	1E	.	.
.	.	1e	.
.	[2G/	.	.
=79	=79	=79	=79
0BB	2G/]	2r	0dd
.	4F/	2d\	.
.	4E/	.	.
.	2D/	2B\	.
.	2G/	[2d\	.
=80	=80	=80	=80
0D	0F	2d\]	0a
.	.	2d\	.
.	.	1A	.
=81	=81	=81	=81
1AA	1E	1r	1a
1GG	1G	2D/	1b
.	.	2E/	.
=82	=82	=82	=82
0FF	1A	2F/	0cc
.	.	2G/	.
.	1F	1A	.
=83	=83	=83	=83
1GG	1D	1G	0b
1EE	1G	2r	.
.	.	2d\	.
=84	=84	=84	=84
1r	1A	2.c\	1e
.	.	4d\	.
1EE	1B	2.e\	1g
.	.	4d\	.
=85	=85	=85	=85
2.FF/	2A/	4c\	1.a
.	.	4B\	.
.	1c	1A	.
4GG/	.	.	.
2AA/	.	.	.
2BB/	4B\	2d\	4g/
.	4A/	.	4f/
=86	=86	=86	=86
2C/	2G/	2c\	2e/
2D\	2F/	2A/	2d/
1E	1E	2c\	1g
.	.	[2B\	.
=87	=87	=87	=87
1AA	1c	4B\]	2f/
.	.	4A/	.
.	.	1A	2e/
1E	1B	.	[1e
.	.	2G/	.
=88	=88	=88	=88
0F	1A	1A	1e]
.	2r	2r	1d
.	[2A/	2A/	.
=89	=89	=89	=89
1E	2A/]	1B	[0el
.	2G/	.	.
2AA/	2A/	2.c\	.
[2C/	2G/	.	.
.	.	4B\	.
=90	=90	=90	=90
4C/]	[0El	2G/	0e_
4BB/	.	.	.
4AA/	.	4A/	.
4GG/	.	4B\	.
2AA/	.	2c\	.
2GG/	.	2B\	.
=91	=91	=91	=91
0EEl	0E]	0Bl	0e]
==	==	==	==
*-	*-	*-	*-
!!!RDF**kern: l=long note in original notation
!!!RDF**kern: i=editorial accidental
!!!ENC:	Jesse Rodin 8/6/2013
!!!END:	2013/08/06/
!!!EED:	Jesse Rodin
!!!EEV:	2013/08/06/
!!!ONB:	Translated from MusicXML and edited on 2013/08/06/ by Craig Sapp
!!muse2ps: C^@{COM}^i2I150v85,85,85,150Q16
